bernoullicharts/log_1_x_two-coin_special_case__bits.svg

<?xml version="1.0" encoding="utf-8" standalone="no"?>
<!DOCTYPE svg PUBLIC "-//W3C//DTD SVG 1.1//EN"
  "http://www.w3.org/Graphics/SVG/1.1/DTD/svg11.dtd">
<!-- Created with matplotlib (https://matplotlib.org/) -->
<svg height="345.6pt" version="1.1" viewBox="0 0 460.8 345.6" width="460.8pt" xmlns="http://www.w3.org/2000/svg" xmlns:xlink="http://www.w3.org/1999/xlink">
 <defs>
  <style type="text/css">
*{stroke-linecap:butt;stroke-linejoin:round;}
  </style>
 </defs>
 <g id="figure_1">
  <g id="patch_1">
   <path d="M 0 345.6 
L 460.8 345.6 
L 460.8 0 
L 0 0 
z
" style="fill:#ffffff;"/>
  </g>
  <g id="axes_1">
   <g id="patch_2">
    <path d="M 57.6 307.584 
L 414.72 307.584 
L 414.72 41.472 
L 57.6 41.472 
z
" style="fill:#ffffff;"/>
   </g>
   <g id="matplotlib.axis_1">
    <g id="xtick_1">
     <g id="line2d_1">
      <defs>
       <path d="M 0 0 
L 0 3.5 
" id="m37cb45041e" style="stroke:#000000;stroke-width:0.8;"/>
      </defs>
      <g>
       <use style="stroke:#000000;stroke-width:0.8;" x="73.800255" xlink:href="#m37cb45041e" y="307.584"/>
      </g>
     </g>
     <g id="text_1">
      <text style="font-family:DejaVu Sans;font-size:10px;font-style:normal;font-weight:normal;text-anchor:middle;" transform="rotate(-0, 73.800255, 322.182437)" x="73.800255" y="322.182437">0.0</text>
     </g>
    </g>
    <g id="xtick_2">
     <g id="line2d_2">
      <g>
       <use style="stroke:#000000;stroke-width:0.8;" x="138.744153" xlink:href="#m37cb45041e" y="307.584"/>
      </g>
     </g>
     <g id="text_2">
      <text style="font-family:DejaVu Sans;font-size:10px;font-style:normal;font-weight:normal;text-anchor:middle;" transform="rotate(-0, 138.744153, 322.182437)" x="138.744153" y="322.182437">0.2</text>
     </g>
    </g>
    <g id="xtick_3">
     <g id="line2d_3">
      <g>
       <use style="stroke:#000000;stroke-width:0.8;" x="203.688051" xlink:href="#m37cb45041e" y="307.584"/>
      </g>
     </g>
     <g id="text_3">
      <text style="font-family:DejaVu Sans;font-size:10px;font-style:normal;font-weight:normal;text-anchor:middle;" transform="rotate(-0, 203.688051, 322.182437)" x="203.688051" y="322.182437">0.4</text>
     </g>
    </g>
    <g id="xtick_4">
     <g id="line2d_4">
      <g>
       <use style="stroke:#000000;stroke-width:0.8;" x="268.631949" xlink:href="#m37cb45041e" y="307.584"/>
      </g>
     </g>
     <g id="text_4">
      <text style="font-family:DejaVu Sans;font-size:10px;font-style:normal;font-weight:normal;text-anchor:middle;" transform="rotate(-0, 268.631949, 322.182437)" x="268.631949" y="322.182437">0.6</text>
     </g>
    </g>
    <g id="xtick_5">
     <g id="line2d_5">
      <g>
       <use style="stroke:#000000;stroke-width:0.8;" x="333.575847" xlink:href="#m37cb45041e" y="307.584"/>
      </g>
     </g>
     <g id="text_5">
      <text style="font-family:DejaVu Sans;font-size:10px;font-style:normal;font-weight:normal;text-anchor:middle;" transform="rotate(-0, 333.575847, 322.182437)" x="333.575847" y="322.182437">0.8</text>
     </g>
    </g>
    <g id="xtick_6">
     <g id="line2d_6">
      <g>
       <use style="stroke:#000000;stroke-width:0.8;" x="398.519745" xlink:href="#m37cb45041e" y="307.584"/>
      </g>
     </g>
     <g id="text_6">
      <text style="font-family:DejaVu Sans;font-size:10px;font-style:normal;font-weight:normal;text-anchor:middle;" transform="rotate(-0, 398.519745, 322.182437)" x="398.519745" y="322.182437">1.0</text>
     </g>
    </g>
    <g id="text_7">
     <text style="font-family:DejaVu Sans;font-size:10px;font-style:normal;font-weight:normal;text-anchor:middle;" transform="rotate(-0, 236.16, 335.860562)" x="236.16" y="335.860562">Probability</text>
    </g>
   </g>
   <g id="matplotlib.axis_2">
    <g id="ytick_1">
     <g id="line2d_7">
      <defs>
       <path d="M 0 0 
L -3.5 0 
" id="mff659ff495" style="stroke:#000000;stroke-width:0.8;"/>
      </defs>
      <g>
       <use style="stroke:#000000;stroke-width:0.8;" x="57.6" xlink:href="#mff659ff495" y="277.191529"/>
      </g>
     </g>
     <g id="text_8">
      <text style="font-family:DejaVu Sans;font-size:10px;font-style:normal;font-weight:normal;text-anchor:end;" transform="rotate(-0, 50.6, 280.990748)" x="50.6" y="280.990748">5.5</text>
     </g>
    </g>
    <g id="ytick_2">
     <g id="line2d_8">
      <g>
       <use style="stroke:#000000;stroke-width:0.8;" x="57.6" xlink:href="#mff659ff495" y="234.838588"/>
      </g>
     </g>
     <g id="text_9">
      <text style="font-family:DejaVu Sans;font-size:10px;font-style:normal;font-weight:normal;text-anchor:end;" transform="rotate(-0, 50.6, 238.637807)" x="50.6" y="238.637807">6.0</text>
     </g>
    </g>
    <g id="ytick_3">
     <g id="line2d_9">
      <g>
       <use style="stroke:#000000;stroke-width:0.8;" x="57.6" xlink:href="#mff659ff495" y="192.485647"/>
      </g>
     </g>
     <g id="text_10">
      <text style="font-family:DejaVu Sans;font-size:10px;font-style:normal;font-weight:normal;text-anchor:end;" transform="rotate(-0, 50.6, 196.284866)" x="50.6" y="196.284866">6.5</text>
     </g>
    </g>
    <g id="ytick_4">
     <g id="line2d_10">
      <g>
       <use style="stroke:#000000;stroke-width:0.8;" x="57.6" xlink:href="#mff659ff495" y="150.132706"/>
      </g>
     </g>
     <g id="text_11">
      <text style="font-family:DejaVu Sans;font-size:10px;font-style:normal;font-weight:normal;text-anchor:end;" transform="rotate(-0, 50.6, 153.931925)" x="50.6" y="153.931925">7.0</text>
     </g>
    </g>
    <g id="ytick_5">
     <g id="line2d_11">
      <g>
       <use style="stroke:#000000;stroke-width:0.8;" x="57.6" xlink:href="#mff659ff495" y="107.779765"/>
      </g>
     </g>
     <g id="text_12">
      <text style="font-family:DejaVu Sans;font-size:10px;font-style:normal;font-weight:normal;text-anchor:end;" transform="rotate(-0, 50.6, 111.578983)" x="50.6" y="111.578983">7.5</text>
     </g>
    </g>
    <g id="ytick_6">
     <g id="line2d_12">
      <g>
       <use style="stroke:#000000;stroke-width:0.8;" x="57.6" xlink:href="#mff659ff495" y="65.426824"/>
      </g>
     </g>
     <g id="text_13">
      <text style="font-family:DejaVu Sans;font-size:10px;font-style:normal;font-weight:normal;text-anchor:end;" transform="rotate(-0, 50.6, 69.226042)" x="50.6" y="69.226042">8.0</text>
     </g>
    </g>
    <g id="text_14">
     <text style="font-family:DejaVu Sans;font-size:10px;font-style:normal;font-weight:normal;text-anchor:middle;" transform="rotate(-90, 28.617187, 174.528)" x="28.617187" y="174.528">Average Bits Consumed Per Call</text>
    </g>
   </g>
   <g id="line2d_13">
    <path clip-path="url(#pe9e129c754)" d="M 73.832727 53.568 
L 77.112066 73.389176 
L 80.391405 59.328 
L 83.670744 111.506824 
L 86.950083 108.965647 
L 90.229421 115.064471 
L 93.50876 141.662118 
L 96.788099 91.008 
L 100.067438 88.636235 
L 103.346777 134.546824 
L 106.626116 136.071529 
L 109.905455 86.433882 
L 113.184793 116.589176 
L 116.464132 121.163294 
L 119.743471 137.765647 
L 123.02281 121.840941 
L 126.302149 85.078588 
L 129.581488 110.320941 
L 132.860826 153.859765 
L 136.140165 122.518588 
L 139.419504 99.139765 
L 142.698843 140.137412 
L 145.978182 169.784471 
L 149.257521 105.746824 
L 152.53686 130.650353 
L 155.816198 173.003294 
L 159.095537 185.031529 
L 162.374876 162.838588 
L 165.654215 162.330353 
L 168.933554 161.483294 
L 172.212893 165.210353 
L 175.492231 158.095059 
L 178.77157 178.424471 
L 182.050909 133.022118 
L 185.330248 147.930353 
L 188.609587 166.226824 
L 191.888926 159.111529 
L 195.168264 168.090353 
L 198.447603 182.151529 
L 201.726942 209.426824 
L 205.006281 194.179765 
L 208.28562 164.363294 
L 211.564959 207.902118 
L 214.844298 196.382118 
L 218.123636 182.151529 
L 221.402975 204.683294 
L 224.682314 242.800941 
L 227.961653 198.753882 
L 231.240992 235.346824 
L 234.520331 219.591529 
L 237.799669 226.537412 
L 241.079008 188.758588 
L 244.358347 202.819765 
L 247.637686 208.918588 
L 250.917025 243.478588 
L 254.196364 227.892706 
L 257.475702 212.815059 
L 260.755041 211.968 
L 264.03438 193.332706 
L 267.313719 208.410353 
L 270.593058 215.356235 
L 273.872397 237.549176 
L 277.151736 229.248 
L 280.431074 231.789176 
L 283.710413 250.255059 
L 286.989752 218.744471 
L 290.269091 202.142118 
L 293.54843 223.826824 
L 296.827769 239.073882 
L 300.107107 254.659765 
L 303.386446 275.666824 
L 306.665785 238.226824 
L 309.945124 245.003294 
L 313.224463 252.796235 
L 316.503802 230.433882 
L 319.78314 265.671529 
L 323.062479 236.024471 
L 326.341818 215.525647 
L 329.621157 267.365647 
L 332.900496 260.250353 
L 336.179835 240.768 
L 339.459174 255.676235 
L 342.738512 238.226824 
L 346.017851 271.262118 
L 349.29719 257.709176 
L 352.576529 260.758588 
L 355.855868 268.890353 
L 359.135207 281.765647 
L 362.414545 288.372706 
L 365.693884 272.109176 
L 368.973223 277.869176 
L 372.252562 267.873882 
L 375.531901 263.299765 
L 378.81124 272.448 
L 382.090579 274.819765 
L 385.369917 281.257412 
L 388.649256 274.819765 
L 391.928595 295.149176 
L 395.207934 295.488 
L 398.487273 272.109176 
" style="fill:none;stroke:#1f77b4;stroke-linecap:square;stroke-width:1.5;"/>
   </g>
   <g id="patch_3">
    <path d="M 57.6 307.584 
L 57.6 41.472 
" style="fill:none;stroke:#000000;stroke-linecap:square;stroke-linejoin:miter;stroke-width:0.8;"/>
   </g>
   <g id="patch_4">
    <path d="M 414.72 307.584 
L 414.72 41.472 
" style="fill:none;stroke:#000000;stroke-linecap:square;stroke-linejoin:miter;stroke-width:0.8;"/>
   </g>
   <g id="patch_5">
    <path d="M 57.6 307.584 
L 414.72 307.584 
" style="fill:none;stroke:#000000;stroke-linecap:square;stroke-linejoin:miter;stroke-width:0.8;"/>
   </g>
   <g id="patch_6">
    <path d="M 57.6 41.472 
L 414.72 41.472 
" style="fill:none;stroke:#000000;stroke-linecap:square;stroke-linejoin:miter;stroke-width:0.8;"/>
   </g>
   <g id="text_15">
    <text style="font-family:DejaVu Sans;font-size:12px;font-style:normal;font-weight:normal;text-anchor:middle;" transform="rotate(-0, 236.16, 35.472)" x="236.16" y="35.472">Avg. Bits Consumed by log(1+x) (Two-Coin Special Case) Algorithm</text>
   </g>
   <g id="legend_1">
    <g id="patch_7">
     <path d="M 209.399687 64.150125 
L 407.72 64.150125 
Q 409.72 64.150125 409.72 62.150125 
L 409.72 48.472 
Q 409.72 46.472 407.72 46.472 
L 209.399687 46.472 
Q 207.399687 46.472 207.399687 48.472 
L 207.399687 62.150125 
Q 207.399687 64.150125 209.399687 64.150125 
z
" style="fill:#ffffff;opacity:0.8;stroke:#cccccc;stroke-linejoin:miter;"/>
    </g>
    <g id="line2d_14">
     <path d="M 211.399687 54.570438 
L 231.399687 54.570438 
" style="fill:none;stroke:#1f77b4;stroke-linecap:square;stroke-width:1.5;"/>
    </g>
    <g id="line2d_15"/>
    <g id="text_16">
     <text style="font-family:DejaVu Sans;font-size:10px;font-style:normal;font-weight:normal;text-anchor:start;" transform="rotate(-0, 239.399687, 58.070438)" x="239.399687" y="58.070438">log(1+x) (Two-Coin Special Case)</text>
    </g>
   </g>
  </g>
 </g>
 <defs>
  <clipPath id="pe9e129c754">
   <rect height="266.112" width="357.12" x="57.6" y="41.472"/>
  </clipPath>
 </defs>
</svg>

<svg height="460.8" viewBox="0 0 460.8 345.6" width="614.4" xmlns="http://www.w3.org/2000/svg" xmlns:xlink="http://www.w3.org/1999/xlink"><defs><style>*{stroke-linecap:butt;stroke-linejoin:round}</style></defs><g id="figure_1"><path d="M0 345.6h460.8V0H0z" fill="#fff" id="patch_1"/><g id="axes_1"><path d="M57.6 307.584h357.12V41.472H57.6z" fill="#fff" id="patch_2"/><g id="matplotlib.axis_1"><g id="xtick_1"><g id="line2d_1"><defs><path d="M0 0v3.5" id="m37cb45041e" stroke="#000" stroke-width=".8"/></defs><use x="73.8" xlink:href="#m37cb45041e" y="307.584" stroke="#000" stroke-width=".8"/></g><text x="73.8" y="322.182" font-family="DejaVu Sans" font-size="10" font-weight="400" text-anchor="middle" id="text_1">0.0</text></g><g id="xtick_2"><use x="138.744" xlink:href="#m37cb45041e" y="307.584" stroke="#000" stroke-width=".8" id="line2d_2"/><text x="138.744" y="322.182" font-family="DejaVu Sans" font-size="10" font-weight="400" text-anchor="middle" id="text_2">0.2</text></g><g id="xtick_3"><use x="203.688" xlink:href="#m37cb45041e" y="307.584" stroke="#000" stroke-width=".8" id="line2d_3"/><text x="203.688" y="322.182" font-family="DejaVu Sans" font-size="10" font-weight="400" text-anchor="middle" id="text_3">0.4</text></g><g id="xtick_4"><use x="268.632" xlink:href="#m37cb45041e" y="307.584" stroke="#000" stroke-width=".8" id="line2d_4"/><text x="268.632" y="322.182" font-family="DejaVu Sans" font-size="10" font-weight="400" text-anchor="middle" id="text_4">0.6</text></g><g id="xtick_5"><use x="333.576" xlink:href="#m37cb45041e" y="307.584" stroke="#000" stroke-width=".8" id="line2d_5"/><text x="333.576" y="322.182" font-family="DejaVu Sans" font-size="10" font-weight="400" text-anchor="middle" id="text_5">0.8</text></g><g id="xtick_6"><use x="398.52" xlink:href="#m37cb45041e" y="307.584" stroke="#000" stroke-width=".8" id="line2d_6"/><text x="398.52" y="322.182" font-family="DejaVu Sans" font-size="10" font-weight="400" text-anchor="middle" id="text_6">1.0</text></g><text x="236.16" y="335.861" font-family="DejaVu Sans" font-size="10" font-weight="400" text-anchor="middle" id="text_7">Probability</text></g><g id="matplotlib.axis_2"><g id="ytick_1"><g id="line2d_7"><defs><path d="M0 0h-3.5" id="mff659ff495" stroke="#000" stroke-width=".8"/></defs><use x="57.6" xlink:href="#mff659ff495" y="277.192" stroke="#000" stroke-width=".8"/></g><text x="50.6" y="280.991" font-family="DejaVu Sans" font-size="10" font-weight="400" text-anchor="end" id="text_8">5.5</text></g><g id="ytick_2"><use x="57.6" xlink:href="#mff659ff495" y="234.839" stroke="#000" stroke-width=".8" id="line2d_8"/><text x="50.6" y="238.638" font-family="DejaVu Sans" font-size="10" font-weight="400" text-anchor="end" id="text_9">6.0</text></g><g id="ytick_3"><use x="57.6" xlink:href="#mff659ff495" y="192.486" stroke="#000" stroke-width=".8" id="line2d_9"/><text x="50.6" y="196.285" font-family="DejaVu Sans" font-size="10" font-weight="400" text-anchor="end" id="text_10">6.5</text></g><g id="ytick_4"><use x="57.6" xlink:href="#mff659ff495" y="150.133" stroke="#000" stroke-width=".8" id="line2d_10"/><text x="50.6" y="153.932" font-family="DejaVu Sans" font-size="10" font-weight="400" text-anchor="end" id="text_11">7.0</text></g><g id="ytick_5"><use x="57.6" xlink:href="#mff659ff495" y="107.78" stroke="#000" stroke-width=".8" id="line2d_11"/><text x="50.6" y="111.579" font-family="DejaVu Sans" font-size="10" font-weight="400" text-anchor="end" id="text_12">7.5</text></g><g id="ytick_6"><use x="57.6" xlink:href="#mff659ff495" y="65.427" stroke="#000" stroke-width=".8" id="line2d_12"/><text x="50.6" y="69.226" font-family="DejaVu Sans" font-size="10" font-weight="400" text-anchor="end" id="text_13">8.0</text></g><text transform="rotate(-90 28.617 174.528)" x="28.617" y="174.528" font-family="DejaVu Sans" font-size="10" font-weight="400" text-anchor="middle" id="text_14">Average Bits Consumed Per Call</text></g><path clip-path="url(#pe9e129c754)" d="M73.833 53.568l3.28 19.821 3.278-14.061 3.28 52.179 3.28-2.541 3.278 6.098 3.28 26.598 3.28-50.654 3.278-2.372 3.28 45.91 3.28 1.526 3.278-49.638 3.28 30.155 3.28 4.574 3.278 16.603 3.28-15.925 3.28-36.762 3.278 25.242 3.28 43.539 3.28-31.341 3.279-23.38 3.279 40.998 3.28 29.647 3.279-64.037 3.279 24.903 3.28 42.353 3.279 12.029 3.279-22.193 3.28-.509 3.279-.847 3.279 3.727 3.28-7.115 3.279 20.33 3.279-45.403 3.28 14.908 3.279 18.297 3.279-7.115 3.28 8.978 3.279 14.062 3.279 27.275 3.28-15.247 3.279-29.817 3.279 43.54 3.28-11.52 3.279-14.231 3.279 22.531 3.28 38.118 3.279-44.047 3.279 36.593 3.28-15.755 3.279 6.945 3.279-37.778 3.28 14.06 3.279 6.1 3.279 34.56 3.28-15.586 3.279-15.078 3.279-.847 3.28-18.635 3.279 15.077 3.28 6.946 3.278 22.193 3.28-8.301 3.28 2.541 3.278 18.466 3.28-31.51 3.28-16.603 3.278 21.685 3.28 15.247 3.28 15.586 3.278 21.007 3.28-37.44 3.28 6.776 3.278 7.793 3.28-22.362 3.28 35.238 3.278-29.648 3.28-20.498 3.28 51.84 3.278-7.116 3.28-19.482 3.28 14.908 3.279-17.45 3.279 33.036 3.28-13.553 3.279 3.05 3.279 8.131 3.28 12.876 3.279 6.607 3.279-16.264 3.28 5.76 3.279-9.995 3.279-4.574 3.28 9.148 3.279 2.372 3.279 6.437 3.28-6.437 3.279 20.33 3.279.338 3.28-23.379" fill="none" stroke="#1f77b4" stroke-linecap="square" stroke-width="1.5" id="line2d_13"/><path d="M57.6 307.584V41.472" fill="none" stroke="#000" stroke-linecap="square" stroke-width=".8" id="patch_3"/><path d="M414.72 307.584V41.472" fill="none" stroke="#000" stroke-linecap="square" stroke-width=".8" id="patch_4"/><path d="M57.6 307.584h357.12" fill="none" stroke="#000" stroke-linecap="square" stroke-width=".8" id="patch_5"/><path d="M57.6 41.472h357.12" fill="none" stroke="#000" stroke-linecap="square" stroke-width=".8" id="patch_6"/><text x="236.16" y="35.472" font-family="DejaVu Sans" font-size="12" font-weight="400" text-anchor="middle" id="text_15">Avg. Bits Consumed by log(1+x) (Two-Coin Special Case) Algorithm</text><g id="legend_1"><path d="M209.4 64.15h198.32q2 0 2-2V48.472q0-2-2-2H209.4q-2 0-2 2V62.15q0 2 2 2z" fill="#fff" opacity=".8" stroke="#ccc" id="patch_7"/><path d="M211.4 54.57h20" fill="none" stroke="#1f77b4" stroke-linecap="square" stroke-width="1.5" id="line2d_14"/><text x="239.4" y="58.07" font-family="DejaVu Sans" font-size="10" font-weight="400" id="text_16">log(1+x) (Two-Coin Special Case)</text></g></g></g><defs><clipPath id="pe9e129c754"><path d="M57.6 41.472h357.12v266.112H57.6z"/></clipPath></defs></svg>
